storage/app/icons/phosphoricons/regular/microsoft-word-logo.svg

<svg xmlns="http://www.w3.org/2000/svg" fill="currentColor" viewBox="0 0 256 256"><path d="M200 24H72a16 16 0 0 0-16 16v24H40a16 16 0 0 0-16 16v96a16 16 0 0 0 16 16h16v24a16 16 0 0 0 16 16h128a16 16 0 0 0 16-16V40a16 16 0 0 0-16-16m-40 80h40v48h-40ZM72 40h128v48h-40v-8a16 16 0 0 0-16-16H72ZM40 80h104v96H40Zm32 136v-24h72a16 16 0 0 0 16-16v-8h40v48Zm-3.76-62.06-12-48a8 8 0 1 1 15.52-3.88l6.76 27 6.32-12.66a8 8 0 0 1 14.32 0l6.32 12.66 6.76-27a8 8 0 0 1 15.52 3.88l-12 48a8 8 0 0 1-6.89 6 9 9 0 0 1-.87.05 8 8 0 0 1-7.16-4.42L92 137.89l-8.84 17.69a8 8 0 0 1-14.92-1.64"/></svg>

<svg xmlns="http://www.w3.org/2000/svg" viewBox="0 0 256 256" fill="currentColor"><path d="M200,24H72A16,16,0,0,0,56,40V64H40A16,16,0,0,0,24,80v96a16,16,0,0,0,16,16H56v24a16,16,0,0,0,16,16H200a16,16,0,0,0,16-16V40A16,16,0,0,0,200,24Zm-40,80h40v48H160ZM72,40H200V88H160V80a16,16,0,0,0-16-16H72ZM40,80H144v79.83c0,.06,0,.11,0,.17s0,.11,0,.17V176H40ZM72,216V192h72a16,16,0,0,0,16-16v-8h40v48Zm-3.76-62.06-12-48a8,8,0,1,1,15.52-3.88l6.76,27,6.32-12.66a8,8,0,0,1,14.32,0l6.32,12.66,6.76-27a8,8,0,0,1,15.52,3.88l-12,48a8,8,0,0,1-6.89,6,8.46,8.46,0,0,1-.87.05,8,8,0,0,1-7.16-4.42L92,137.89l-8.84,17.69a8,8,0,0,1-14.92-1.64Z"/></svg>
